X:1
T:Sean Sa Ceo
M:C|
L:1/8
K:DDor
"Dm"FDDC D3E|FD D2 "C"GECE|"Dm"FDDC DEFG|"Am"ABcA "C"GECE|!
"Dm"FDDC D3E|FD D2 "C"GECE|"Dm"FDDC DEFG|1"Am"ABcA "Dm"GFED:|2"Am"ABcA "G"GABc||!
"Dm"d2fd edfd|(3d.d.d fd A2 AB|"C(Am)"c2 ec dcec|c2 ec ABcA|!
"Dm"d2fd edfd|d2 fd A2 AB|"Am"cBce dcAB|1"Am"cdcA "G"GABc:|2"Am"cdcA "Dm"GFED|]!
